src/pos-icons/numeric-10-circle-outline.svg

<svg height="24" viewBox="0 0 24 24" width="24" xmlns="http://www.w3.org/2000/svg"><path d="m12 2c5.5 0 10 4.5 10 10s-4.5 10-10 10-10-4.5-10-10 4.5-10 10-10m0 2c-4.42 0-8 3.58-8 8s3.58 8 8 8 8-3.58 8-8-3.58-8-8-8m-2 3h-4v2h2v8h2zm6 0h-2c-1.1 0-2 .9-2 2v6c0 1.11.9 2 2 2h2c1.11 0 2-.89 2-2v-6c0-1.1-.89-2-2-2m0 8h-2v-6h2z"/></svg>

<?xml version="1.0" encoding="UTF-8"?><!DOCTYPE svg PUBLIC "-//W3C//DTD SVG 1.1//EN" "http://www.w3.org/Graphics/SVG/1.1/DTD/svg11.dtd"><svg xmlns="http://www.w3.org/2000/svg" xmlns:xlink="http://www.w3.org/1999/xlink" version="1.1" id="mdi-numeric-10-circle-outline" width="24" height="24" viewBox="0 0 24 24"><path d="M12 2C17.5 2 22 6.5 22 12S17.5 22 12 22 2 17.5 2 12 6.5 2 12 2M12 4C7.58 4 4 7.58 4 12S7.58 20 12 20 20 16.42 20 12 16.42 4 12 4M10 7H6V9H8V17H10V7M16 7H14C12.9 7 12 7.9 12 9V15C12 16.11 12.9 17 14 17H16C17.11 17 18 16.11 18 15V9C18 7.9 17.11 7 16 7M16 15H14V9H16V15Z" /></svg>
